X: 27473
T: Molly On The Shore
R: reel
M: 4/4
K: Dminor
F>C|C>DF>G A2f>d|c>AG>F D2F>D|C>DF>G A2f>d|c>AG>F F2c>d|
f>dc>A G2c>A|(3GAG F>D D2c>d|f>dc>A G2c>A|(3GAG FD D2||

